docs/src/assets/logo.svg

<?xml version="1.0" encoding="UTF-8" standalone="no"?><!DOCTYPE svg PUBLIC "-//W3C//DTD SVG 1.1//EN" "http://www.w3.org/Graphics/SVG/1.1/DTD/svg11.dtd"><svg width="100%" height="100%" viewBox="0 0 913 317" version="1.1" xmlns="http://www.w3.org/2000/svg" xmlns:xlink="http://www.w3.org/1999/xlink" xml:space="preserve" xmlns:serif="http://www.serif.com/" style="fill-rule:evenodd;clip-rule:evenodd;stroke-linejoin:round;stroke-miterlimit:2;"><rect id="Artboard1" x="0" y="0" width="912.156" height="316.667" style="fill:none;"/><g transform="matrix(4.16667,0,0,4.16667,-831.422,-962.5)"><g transform="matrix(64,0,0,64,206.12,293)"><path d="M0.577,-0l-0.133,-0c-0.007,-0 -0.011,-0.004 -0.011,-0.011l0,-0.278l-0.216,0l0,0.289l-0.133,0c-0.007,0 -0.011,-0.004 -0.011,-0.011l0,-0.689l0.133,0c0.007,0 0.011,0.004 0.011,0.011l0,0.278l0.216,0l0,-0.289l0.133,0c0.007,0 0.011,0.004 0.011,0.011l0,0.689Z" style="fill:#1b1d20;fill-rule:nonzero;"/></g><g transform="matrix(64,0,0,64,247.72,293)"><path d="M0.592,-0.239c0,0.076 -0.022,0.135 -0.065,0.177c-0.043,0.041 -0.102,0.062 -0.176,0.062l-0.261,0c-0.007,0 -0.011,-0.004 -0.011,-0.011l0,-0.561l-0.038,0c-0.007,0 -0.011,-0.004 -0.011,-0.011l0,-0.117l0.31,0c0.089,0 0.154,0.022 0.193,0.065c0.039,0.042 0.059,0.1 0.059,0.173l0,0.223Zm-0.369,0.111l0.125,-0c0.04,-0 0.068,-0.011 0.085,-0.032c0.016,-0.021 0.024,-0.05 0.024,-0.087l0,-0.206c0,-0.045 -0.009,-0.077 -0.028,-0.096c-0.017,-0.015 -0.045,-0.023 -0.083,-0.023l-0.123,0l0,0.444Z" style="fill:#1b1d20;fill-rule:nonzero;"/></g><g transform="matrix(64,0,0,64,289.32,293)"><path d="M0.241,-0l-0.133,-0c-0.007,-0 -0.011,-0.004 -0.011,-0.011l0,-0.567l-0.037,0c-0.007,0 -0.011,-0.004 -0.011,-0.011l0,-0.111l0.43,0c0.007,0 0.011,0.004 0.011,0.011l0,0.111l-0.249,0l0,0.192l0.205,0c0.007,0 0.011,0.004 0.011,0.011l0,0.112l-0.216,0l-0,0.263Z" style="fill:#1b1d20;fill-rule:nonzero;"/></g><g transform="matrix(64,0,0,64,324.52,293)"><path d="M0.12,-0.7l0.386,0c0.007,0 0.011,0.004 0.011,0.011l0,0.108l-0.275,0c-0.001,0.005 -0.001,0.011 -0.002,0.017c-0.003,0.026 -0.007,0.054 -0.01,0.083c-0.003,0.029 -0.006,0.055 -0.009,0.08l0.021,0c0.015,-0.011 0.033,-0.019 0.054,-0.024c0.02,-0.005 0.043,-0.008 0.069,-0.008c0.058,0 0.103,0.016 0.134,0.049c0.031,0.032 0.047,0.079 0.047,0.14l0,0.049c0,0.066 -0.022,0.118 -0.066,0.157c-0.043,0.039 -0.108,0.058 -0.193,0.058c-0.054,-0 -0.099,-0.004 -0.135,-0.012c-0.035,-0.008 -0.059,-0.016 -0.072,-0.023c-0.003,-0.002 -0.005,-0.004 -0.006,-0.006c0,-0.002 -0,-0.004 -0,-0.007l-0,-0.123l0.018,0c0.029,0.013 0.059,0.022 0.09,0.028c0.032,0.005 0.067,0.008 0.106,0.008c0.041,0 0.072,-0.008 0.093,-0.024c0.02,-0.016 0.03,-0.037 0.03,-0.062l-0,-0.036c-0,-0.025 -0.007,-0.046 -0.022,-0.062c-0.015,-0.016 -0.04,-0.024 -0.075,-0.024c-0.039,0 -0.073,0.008 -0.102,0.025l-0.12,0c-0.008,0 -0.012,-0.004 -0.011,-0.013c0.001,-0.007 0.002,-0.021 0.004,-0.041c0.002,-0.021 0.004,-0.045 0.007,-0.074c0.003,-0.029 0.007,-0.059 0.01,-0.091c0.003,-0.033 0.006,-0.065 0.009,-0.097c0.003,-0.031 0.006,-0.06 0.009,-0.086Z" style="fill:#1b1d20;fill-rule:nonzero;"/></g><g transform="matrix(48,0,0,48,362.92,293)"><path d="M0.257,-0.001c-0.018,0.007 -0.039,0.011 -0.064,0.011c-0.033,-0 -0.057,-0.006 -0.075,-0.018c-0.017,-0.012 -0.025,-0.038 -0.025,-0.079l0,-0.086c0.024,-0.011 0.051,-0.017 0.081,-0.017c0.026,0 0.046,0.006 0.061,0.018c0.015,0.011 0.022,0.035 0.022,0.07l0,0.101Z" style="fill:#676d75;fill-rule:nonzero;"/></g><g transform="matrix(48,0,0,48,378.28,293)"><path d="M0.14,-0.548c0.091,0 0.136,0.021 0.136,0.062l0,0.487c0,0.033 -0.008,0.064 -0.023,0.094c-0.015,0.031 -0.035,0.056 -0.06,0.075c-0.025,0.02 -0.054,0.03 -0.086,0.03c-0.016,-0 -0.03,-0.002 -0.041,-0.005c-0.011,-0.003 -0.022,-0.009 -0.031,-0.018c-0.009,-0.009 -0.016,-0.023 -0.021,-0.041c-0.005,-0.017 -0.007,-0.035 -0.007,-0.053c-0,-0.014 0.001,-0.026 0.004,-0.036l0.005,0c0.015,0.007 0.029,0.011 0.041,0.014c0.012,0.003 0.026,0.004 0.041,0.004c0.013,-0 0.024,-0.002 0.033,-0.006c0.004,-0.015 0.007,-0.031 0.008,-0.048c0.001,-0.017 0.001,-0.035 0.001,-0.056l0,-0.373l-0.006,-0.003c-0.022,0.01 -0.042,0.015 -0.06,0.015c-0.013,0 -0.024,-0.007 -0.031,-0.021c-0.007,-0.015 -0.01,-0.035 -0.01,-0.062c-0,-0.02 0.002,-0.037 0.005,-0.052c0.017,-0.002 0.034,-0.004 0.052,-0.005c0.019,-0.001 0.035,-0.002 0.05,-0.002Zm-0.026,-0.205c0.025,-0.01 0.055,-0.015 0.09,-0.015c0.029,0 0.053,0.005 0.072,0.015c0.019,0.009 0.028,0.027 0.028,0.052l-0,0.069c-0.023,0.01 -0.049,0.015 -0.08,0.015c-0.032,0 -0.058,-0.007 -0.079,-0.021c-0.021,-0.015 -0.031,-0.034 -0.031,-0.059l-0,-0.056Z" style="fill:#676d75;fill-rule:nonzero;"/></g><g transform="matrix(48,0,0,48,395.08,293)"><path d="M0.07,-0.654c0,-0.017 -0.001,-0.035 -0.004,-0.052c-0.002,-0.018 -0.005,-0.033 -0.01,-0.045c0.014,-0.004 0.032,-0.006 0.054,-0.006c0.025,0 0.048,0.009 0.067,0.026c0.019,0.017 0.029,0.049 0.029,0.094l0,0.432c0,0.031 0.002,0.056 0.007,0.074c0.004,0.003 0.009,0.005 0.014,0.007c0.005,0.002 0.011,0.003 0.018,0.003c0.013,0 0.024,-0.002 0.033,-0.005c0.009,-0.004 0.017,-0.009 0.026,-0.016l0.006,0c0.003,0.011 0.004,0.025 0.004,0.044c-0,0.022 -0.002,0.04 -0.007,0.055c-0.005,0.014 -0.011,0.025 -0.02,0.034c-0.007,0.007 -0.017,0.012 -0.029,0.015c-0.012,0.003 -0.026,0.004 -0.041,0.004c-0.035,-0 -0.064,-0.008 -0.085,-0.024c-0.022,-0.017 -0.038,-0.037 -0.048,-0.062c-0.009,-0.025 -0.014,-0.049 -0.014,-0.074l0,-0.504Z" style="fill:#676d75;fill-rule:nonzero;"/></g></g></svg>

<?xml version="1.0" encoding="UTF-8" standalone="no"?>
<!DOCTYPE svg PUBLIC "-//W3C//DTD SVG 1.1//EN" "http://www.w3.org/Graphics/SVG/1.1/DTD/svg11.dtd">
<svg width="100%" height="100%" viewBox="0 0 234 56" version="1.1" xmlns="http://www.w3.org/2000/svg" xmlns:xlink="http://www.w3.org/1999/xlink" xml:space="preserve" xmlns:serif="http://www.serif.com/" style="fill-rule:evenodd;clip-rule:evenodd;stroke-linejoin:round;stroke-miterlimit:2;">
    <g transform="matrix(1,0,0,1,-283.224,-272.48)">
        <g transform="matrix(1,0,0,1,110.991,75.1416)">
            <g transform="matrix(64,0,0,64,168.137,242.778)">
                <path d="M0.064,-0.7C0.081,-0.701 0.096,-0.702 0.111,-0.703C0.126,-0.704 0.141,-0.704 0.158,-0.704C0.177,-0.704 0.19,-0.699 0.198,-0.69C0.206,-0.68 0.21,-0.667 0.21,-0.651L0.21,0C0.195,0.001 0.18,0.002 0.166,0.003C0.151,0.004 0.136,0.004 0.119,0.004C0.108,0.004 0.099,0.002 0.092,-0.002C0.085,-0.005 0.079,-0.012 0.076,-0.021C0.072,-0.029 0.07,-0.042 0.07,-0.058L0.07,-0.592C0.07,-0.611 0.07,-0.63 0.069,-0.648C0.068,-0.665 0.066,-0.683 0.064,-0.7ZM0.077,-0.398L0.315,-0.398C0.33,-0.398 0.345,-0.397 0.358,-0.395C0.371,-0.393 0.383,-0.389 0.394,-0.384L0.428,-0.396L0.442,-0.274L0.109,-0.274C0.102,-0.274 0.097,-0.275 0.093,-0.278C0.089,-0.28 0.086,-0.283 0.084,-0.289C0.081,-0.294 0.08,-0.3 0.079,-0.307C0.078,-0.314 0.077,-0.322 0.077,-0.331L0.077,-0.398ZM0.541,0C0.525,0.001 0.51,0.002 0.495,0.003C0.48,0.004 0.464,0.004 0.447,0.004C0.436,0.004 0.427,0.002 0.42,-0.003C0.412,-0.008 0.406,-0.015 0.402,-0.024C0.397,-0.033 0.395,-0.044 0.395,-0.057L0.395,-0.7C0.411,-0.701 0.426,-0.702 0.441,-0.703C0.456,-0.704 0.471,-0.704 0.487,-0.704C0.495,-0.704 0.502,-0.703 0.508,-0.702C0.514,-0.7 0.519,-0.697 0.523,-0.693C0.527,-0.689 0.53,-0.684 0.532,-0.678C0.534,-0.671 0.535,-0.663 0.535,-0.652L0.535,-0.11C0.535,-0.091 0.536,-0.072 0.537,-0.053C0.538,-0.034 0.539,-0.017 0.541,0Z" style="fill-rule:nonzero;"/>
            </g>
            <g transform="matrix(64,0,0,64,206.537,242.778)">
                <path d="M0.546,-0.319C0.546,-0.269 0.54,-0.224 0.528,-0.184C0.515,-0.144 0.497,-0.11 0.474,-0.082C0.451,-0.054 0.423,-0.033 0.39,-0.018C0.357,-0.003 0.32,0.005 0.279,0.005C0.266,0.005 0.253,0.005 0.239,0.004C0.225,0.003 0.211,0.002 0.197,0C0.183,-0.001 0.17,-0.003 0.157,-0.006C0.144,-0.008 0.133,-0.011 0.124,-0.014C0.114,-0.017 0.106,-0.02 0.1,-0.023C0.093,-0.028 0.088,-0.034 0.085,-0.041C0.081,-0.048 0.079,-0.055 0.079,-0.064L0.079,-0.617L0.213,-0.617L0.203,-0.591C0.209,-0.578 0.214,-0.563 0.217,-0.548C0.22,-0.532 0.221,-0.515 0.221,-0.497L0.221,-0.125L0.268,-0.125C0.299,-0.125 0.324,-0.132 0.344,-0.147C0.365,-0.161 0.38,-0.182 0.39,-0.211C0.4,-0.239 0.405,-0.274 0.405,-0.315L0.405,-0.431C0.405,-0.451 0.404,-0.469 0.403,-0.485C0.401,-0.5 0.399,-0.514 0.396,-0.526C0.393,-0.538 0.388,-0.549 0.382,-0.558C0.375,-0.563 0.366,-0.568 0.357,-0.572C0.347,-0.575 0.336,-0.578 0.325,-0.58C0.314,-0.582 0.301,-0.583 0.287,-0.583C0.262,-0.583 0.238,-0.583 0.215,-0.582C0.192,-0.581 0.171,-0.579 0.152,-0.578C0.132,-0.577 0.114,-0.576 0.098,-0.575C0.081,-0.574 0.066,-0.573 0.053,-0.573C0.048,-0.573 0.043,-0.575 0.039,-0.578C0.035,-0.581 0.032,-0.587 0.03,-0.594C0.028,-0.601 0.027,-0.61 0.027,-0.621C0.027,-0.635 0.027,-0.649 0.028,-0.662C0.028,-0.675 0.029,-0.687 0.03,-0.7C0.051,-0.702 0.073,-0.704 0.095,-0.705C0.116,-0.706 0.138,-0.707 0.161,-0.708C0.183,-0.709 0.205,-0.709 0.229,-0.71C0.252,-0.71 0.274,-0.71 0.296,-0.71C0.334,-0.71 0.368,-0.704 0.399,-0.693C0.43,-0.681 0.456,-0.664 0.478,-0.641C0.5,-0.618 0.517,-0.59 0.529,-0.557C0.54,-0.524 0.546,-0.486 0.546,-0.443L0.546,-0.319Z" style="fill-rule:nonzero;"/>
            </g>
            <g transform="matrix(64,0,0,64,244.937,242.778)">
                <path d="M0.26,0C0.245,0.001 0.23,0.002 0.216,0.002C0.201,0.003 0.186,0.003 0.169,0.003C0.156,0.003 0.145,0.001 0.136,-0.003C0.127,-0.007 0.121,-0.013 0.117,-0.021C0.112,-0.029 0.11,-0.039 0.11,-0.052L0.11,-0.608L0.247,-0.608L0.237,-0.579C0.243,-0.566 0.247,-0.551 0.25,-0.535C0.253,-0.519 0.254,-0.502 0.254,-0.483L0.254,-0.096C0.254,-0.079 0.254,-0.062 0.255,-0.046C0.256,-0.03 0.257,-0.015 0.26,0ZM0.048,-0.7L0.501,-0.7C0.511,-0.7 0.519,-0.697 0.524,-0.692C0.529,-0.686 0.533,-0.679 0.536,-0.672C0.538,-0.664 0.539,-0.657 0.539,-0.651C0.539,-0.641 0.539,-0.632 0.539,-0.623C0.538,-0.614 0.538,-0.606 0.538,-0.598C0.537,-0.589 0.536,-0.58 0.535,-0.571L0.077,-0.571C0.069,-0.571 0.063,-0.574 0.059,-0.579C0.054,-0.584 0.051,-0.59 0.049,-0.598C0.047,-0.605 0.046,-0.613 0.046,-0.62C0.046,-0.635 0.046,-0.648 0.047,-0.661C0.047,-0.673 0.047,-0.686 0.048,-0.7ZM0.193,-0.364L0.439,-0.364C0.456,-0.364 0.468,-0.359 0.476,-0.349C0.485,-0.339 0.489,-0.327 0.489,-0.313L0.489,-0.286L0.488,-0.24L0.193,-0.24L0.193,-0.364Z" style="fill-rule:nonzero;"/>
            </g>
            <g transform="matrix(64,0,0,64,283.337,242.778)">
                <path d="M0.108,-0.7L0.475,-0.7C0.492,-0.7 0.504,-0.696 0.511,-0.688C0.518,-0.68 0.522,-0.669 0.522,-0.655L0.522,-0.643C0.522,-0.637 0.522,-0.63 0.522,-0.624C0.521,-0.617 0.521,-0.61 0.521,-0.603C0.52,-0.596 0.52,-0.589 0.52,-0.584C0.52,-0.579 0.52,-0.575 0.519,-0.573L0.185,-0.573C0.167,-0.573 0.152,-0.576 0.14,-0.582C0.128,-0.587 0.119,-0.596 0.114,-0.608C0.108,-0.62 0.105,-0.636 0.105,-0.655C0.105,-0.664 0.105,-0.672 0.106,-0.68C0.107,-0.687 0.107,-0.694 0.108,-0.7ZM0.138,-0.657L0.25,-0.657L0.242,-0.608C0.245,-0.597 0.247,-0.586 0.247,-0.573C0.247,-0.56 0.246,-0.544 0.244,-0.526C0.241,-0.507 0.239,-0.488 0.236,-0.469C0.233,-0.45 0.231,-0.431 0.229,-0.412C0.226,-0.393 0.224,-0.376 0.221,-0.36L0.198,-0.385L0.265,-0.385L0.208,-0.362C0.229,-0.38 0.251,-0.393 0.274,-0.4C0.297,-0.407 0.323,-0.411 0.353,-0.411C0.382,-0.411 0.409,-0.407 0.433,-0.399C0.456,-0.39 0.476,-0.378 0.494,-0.362C0.51,-0.345 0.524,-0.325 0.533,-0.302C0.542,-0.278 0.546,-0.251 0.546,-0.221L0.546,-0.189C0.546,-0.158 0.541,-0.129 0.531,-0.104C0.52,-0.079 0.504,-0.057 0.483,-0.038C0.462,-0.019 0.435,-0.005 0.404,0.005C0.373,0.015 0.336,0.02 0.294,0.02C0.257,0.02 0.225,0.018 0.197,0.013C0.169,0.009 0.146,0.003 0.127,-0.004C0.108,-0.011 0.094,-0.019 0.085,-0.026C0.077,-0.033 0.071,-0.042 0.069,-0.051C0.066,-0.06 0.064,-0.071 0.064,-0.082L0.064,-0.116C0.064,-0.123 0.064,-0.131 0.065,-0.138L0.066,-0.168L0.079,-0.168C0.108,-0.151 0.139,-0.138 0.172,-0.129C0.205,-0.119 0.242,-0.115 0.285,-0.115C0.332,-0.115 0.368,-0.124 0.393,-0.141C0.417,-0.158 0.429,-0.179 0.429,-0.205L0.429,-0.225C0.425,-0.241 0.418,-0.255 0.407,-0.267C0.397,-0.279 0.383,-0.288 0.366,-0.295C0.349,-0.301 0.327,-0.304 0.301,-0.304C0.285,-0.304 0.27,-0.303 0.256,-0.301C0.242,-0.298 0.229,-0.295 0.216,-0.291L0.129,-0.291C0.112,-0.291 0.1,-0.293 0.094,-0.298C0.087,-0.302 0.085,-0.308 0.086,-0.316C0.089,-0.339 0.093,-0.362 0.097,-0.386C0.1,-0.41 0.104,-0.434 0.107,-0.459C0.11,-0.484 0.114,-0.508 0.117,-0.531C0.121,-0.554 0.125,-0.577 0.128,-0.598C0.131,-0.619 0.134,-0.639 0.138,-0.657Z" style="fill-rule:nonzero;"/>
            </g>
            <g transform="matrix(48,0,0,48,321.737,242.778)">
                <path d="M0.396,0.004C0.382,0.005 0.368,0.006 0.353,0.007C0.338,0.008 0.324,0.009 0.309,0.009C0.294,0.01 0.28,0.01 0.266,0.01C0.256,0.01 0.246,0.009 0.236,0.006C0.227,0.004 0.219,0 0.213,-0.007C0.207,-0.014 0.204,-0.023 0.204,-0.035L0.204,-0.175C0.218,-0.178 0.233,-0.18 0.248,-0.182C0.263,-0.183 0.278,-0.185 0.293,-0.186C0.308,-0.187 0.323,-0.187 0.338,-0.187C0.347,-0.187 0.356,-0.186 0.365,-0.183C0.374,-0.18 0.381,-0.174 0.387,-0.168C0.393,-0.161 0.396,-0.15 0.396,-0.137L0.396,0.004Z" style="fill:rgb(135,135,135);fill-rule:nonzero;"/>
            </g>
            <g transform="matrix(48,0,0,48,350.537,242.778)">
                <path d="M0.373,-0.543C0.389,-0.543 0.403,-0.542 0.413,-0.539C0.425,-0.536 0.433,-0.531 0.438,-0.526C0.443,-0.521 0.446,-0.514 0.446,-0.506L0.446,-0.045C0.446,-0.007 0.44,0.027 0.429,0.057C0.418,0.088 0.401,0.114 0.38,0.135C0.359,0.156 0.333,0.172 0.303,0.183C0.272,0.194 0.238,0.2 0.201,0.2C0.172,0.2 0.147,0.198 0.125,0.195C0.103,0.192 0.085,0.188 0.071,0.183C0.057,0.178 0.047,0.173 0.041,0.168C0.036,0.162 0.032,0.154 0.029,0.145C0.026,0.136 0.025,0.125 0.025,0.114C0.025,0.101 0.025,0.087 0.025,0.074C0.026,0.061 0.026,0.048 0.027,0.035L0.039,0.035C0.055,0.042 0.071,0.048 0.087,0.052C0.103,0.057 0.12,0.06 0.138,0.062C0.156,0.064 0.176,0.065 0.197,0.065C0.216,0.065 0.233,0.063 0.249,0.059C0.265,0.056 0.279,0.05 0.291,0.041C0.296,0.033 0.3,0.024 0.303,0.014C0.306,0.005 0.308,-0.006 0.309,-0.018C0.31,-0.03 0.311,-0.043 0.311,-0.058L0.311,-0.414L0.302,-0.416C0.279,-0.414 0.257,-0.412 0.237,-0.41C0.218,-0.409 0.2,-0.407 0.183,-0.406C0.166,-0.406 0.149,-0.405 0.134,-0.405C0.119,-0.404 0.104,-0.404 0.091,-0.404C0.082,-0.404 0.076,-0.408 0.07,-0.417C0.066,-0.425 0.063,-0.437 0.063,-0.453C0.063,-0.468 0.063,-0.483 0.064,-0.497C0.064,-0.511 0.064,-0.525 0.065,-0.538C0.089,-0.539 0.114,-0.54 0.141,-0.541C0.167,-0.541 0.193,-0.541 0.22,-0.542C0.246,-0.543 0.272,-0.543 0.299,-0.543L0.373,-0.543ZM0.287,-0.775C0.296,-0.776 0.306,-0.778 0.317,-0.779C0.327,-0.78 0.338,-0.78 0.348,-0.781C0.36,-0.782 0.371,-0.782 0.382,-0.783C0.393,-0.783 0.403,-0.783 0.414,-0.783C0.43,-0.783 0.443,-0.78 0.454,-0.774C0.464,-0.768 0.469,-0.758 0.469,-0.744L0.469,-0.645C0.46,-0.644 0.45,-0.643 0.44,-0.642C0.43,-0.641 0.42,-0.641 0.409,-0.64C0.399,-0.639 0.389,-0.638 0.379,-0.637C0.368,-0.637 0.358,-0.637 0.348,-0.637C0.33,-0.637 0.315,-0.641 0.304,-0.65C0.293,-0.658 0.287,-0.669 0.287,-0.683L0.287,-0.775Z" style="fill:rgb(135,135,135);fill-rule:nonzero;"/>
            </g>
            <g transform="matrix(48,0,0,48,379.337,242.778)">
                <path d="M0.039,-0.736C0.057,-0.739 0.075,-0.741 0.093,-0.743C0.11,-0.745 0.128,-0.747 0.145,-0.749C0.162,-0.75 0.178,-0.751 0.195,-0.752C0.211,-0.753 0.227,-0.754 0.243,-0.754C0.259,-0.755 0.275,-0.755 0.29,-0.755C0.306,-0.755 0.319,-0.753 0.33,-0.749C0.341,-0.745 0.349,-0.74 0.355,-0.733C0.36,-0.726 0.363,-0.717 0.363,-0.706L0.363,-0.179C0.363,-0.168 0.364,-0.159 0.365,-0.15C0.366,-0.141 0.368,-0.134 0.371,-0.127C0.376,-0.124 0.382,-0.122 0.389,-0.121C0.395,-0.119 0.402,-0.119 0.411,-0.119C0.427,-0.119 0.442,-0.119 0.457,-0.121C0.471,-0.122 0.485,-0.123 0.498,-0.126C0.51,-0.129 0.523,-0.132 0.536,-0.137L0.549,-0.137C0.55,-0.125 0.55,-0.113 0.551,-0.101C0.551,-0.089 0.551,-0.077 0.551,-0.065C0.551,-0.057 0.55,-0.05 0.548,-0.043C0.546,-0.035 0.543,-0.029 0.54,-0.025C0.537,-0.02 0.533,-0.015 0.529,-0.012C0.519,-0.009 0.508,-0.007 0.495,-0.004C0.482,-0.001 0.468,0.002 0.453,0.003C0.437,0.005 0.419,0.006 0.4,0.006C0.371,0.006 0.345,0.002 0.324,-0.006C0.302,-0.014 0.284,-0.025 0.27,-0.039C0.255,-0.053 0.245,-0.07 0.238,-0.089C0.231,-0.108 0.228,-0.128 0.228,-0.151L0.228,-0.635L0.217,-0.637C0.195,-0.632 0.175,-0.627 0.159,-0.622C0.141,-0.616 0.125,-0.611 0.11,-0.606C0.095,-0.601 0.079,-0.599 0.063,-0.599C0.055,-0.599 0.049,-0.604 0.043,-0.613C0.039,-0.622 0.036,-0.636 0.036,-0.654C0.036,-0.668 0.036,-0.682 0.037,-0.696C0.038,-0.71 0.038,-0.723 0.039,-0.736Z" style="fill:rgb(135,135,135);fill-rule:nonzero;"/>
            </g>
        </g>
    </g>
</svg>
